src/images/Icon-Show-Hide.svg

<?xml version="1.0" encoding="UTF-8"?>
<svg width="25px" height="18px" viewBox="0 0 25 18" version="1.1" xmlns="http://www.w3.org/2000/svg" xmlns:xlink="http://www.w3.org/1999/xlink">
    <!-- Generator: Sketch 50.2 (55047) - http://www.bohemiancoding.com/sketch -->
    <title>Icon-Show-Hide</title>
    <desc>Created with Sketch.</desc>
    <defs></defs>
    <g id="Icon-Show-Hide" stroke="none" stroke-width="1" fill="none" fill-rule="evenodd" fill-opacity="0.5">
        <path d="M12.500172,17.0714944 C8.69212071,17.0714944 5.08853452,15.4580949 2.35102331,12.5286186 C2.01441478,12.1687957 2.03405772,11.6036149 2.39388062,11.2670063 C2.75459639,10.9303978 3.31888441,10.9500408 3.65638579,11.3098637 C6.05193132,13.8741599 9.19212275,15.2857728 12.500172,15.2857728 C16.752868,15.2857728 20.6689555,12.9598704 23.0716439,9.0357472 C20.6698483,5.11162398 16.752868,2.7857216 12.500172,2.7857216 C8.09122539,2.7857216 4.04299452,5.2866247 1.66977051,9.47592757 C1.42691238,9.90539362 0.880481568,10.05718 0.452801245,9.81253609 C0.0233352,9.56967796 -0.126665414,9.02503287 0.116192723,8.59556682 C2.80995376,3.83929734 7.44032986,1 12.500172,1 C17.560907,1 22.1903903,3.83929734 24.8841513,8.59556682 C25.0386162,8.86878223 25.0386162,9.20271217 24.8841513,9.47503471 C22.1903903,14.2313042 17.560907,17.0714944 12.500172,17.0714944 Z M12.500172,13.5000512 C10.0385548,13.5000512 8.03586802,11.4973644 8.03586802,9.0357472 C8.03586802,6.57412997 10.0385548,4.5714432 12.500172,4.5714432 C14.9617892,4.5714432 16.964476,6.57412997 16.964476,9.0357472 C16.964476,11.4973644 14.9617892,13.5000512 12.500172,13.5000512 Z M12.500172,6.3571648 C11.0233803,6.3571648 9.82158962,7.55895544 9.82158962,9.0357472 C9.82158962,10.512539 11.0233803,11.7143296 12.500172,11.7143296 C13.9769638,11.7143296 15.1787544,10.512539 15.1787544,9.0357472 C15.1787544,7.55895544 13.9769638,6.3571648 12.500172,6.3571648 Z" id="Eye-Icon" fill="#5C5C5C" fill-rule="nonzero"></path>
    </g>
</svg>

<svg viewBox="0 0 25 18" xmlns="http://www.w3.org/2000/svg">
  <path d="M12.5 17.071c-3.808 0-7.411-1.613-10.149-4.542a.893.893 0 0 1 1.305-1.22c2.396 2.565 5.536 3.977 8.844 3.977 4.253 0 8.169-2.326 10.572-6.25-2.402-3.924-6.32-6.25-10.572-6.25-4.409 0-8.457 2.5-10.83 6.69a.892.892 0 1 1-1.554-.88C2.81 3.839 7.44 1 12.5 1c5.06 0 9.69 2.84 12.384 7.596a.892.892 0 0 1 0 .879c-2.694 4.756-7.323 7.596-12.384 7.596zm0-3.57a4.47 4.47 0 0 1-4.464-4.465A4.47 4.47 0 0 1 12.5 4.57a4.47 4.47 0 0 1 4.464 4.465A4.47 4.47 0 0 1 12.5 13.5zm0-7.144a2.682 2.682 0 0 0-2.678 2.679 2.682 2.682 0 0 0 2.678 2.678 2.682 2.682 0 0 0 2.679-2.678A2.682 2.682 0 0 0 12.5 6.357z" fill="#5C5C5C" fill-rule="nonzero" fill-opacity=".5"/>
</svg>
